X:1
T: Miss Euphemia Lowe's Jig
C:William Marshall
R:Jig
Q:180
K:C
M:6/8
L:1/16
C6C4c2|Bcd2B2 c6|c6C4E2|A,2D2C2 B,2A,2G,2|C6C4c2|Bcd2B2 c4G2|c2B2A2 G2F2E2|A,2A2C2 B,2A,2G,2|
C6C4c2|Bcd2B2 c6|c6C4E2|A,2D2C2 B,2A,2G,2|C6C4c2|Bcd2B2 c4G2|c2B2A2 G2F2E2|A,2A2C2 B,2A,2G,2|
e4c2 c2B2c2|G2A2B2 c6|e4c2 c2B2c2|A2d2c2 B2A2G2|e4c2 c2B2c2|G2A2B2 c4G2|c2B2A2 G2F2E2|A,2D2C2 B,2A,2G,2|
e4c2 c2B2c2|G2A2B2 c6|e4c2 c2B2c2|A2d2c2 B2A2G2|e2f2g2 d2e2f2|e2d2c2 d2c2B2|c2B2A2 G2F2E2|A,2D2C2 B,2A,2G,2||
